assets/illustrations/multisize/48/audiowatermark.svg

<svg id="b52fd6c8-bf94-4332-99ed-e8d925c2d7c7" data-name="ICONS" xmlns="http://www.w3.org/2000/svg" viewBox="0 0 48 48"><title>FileTypeIcons_Master_All_NEW</title><path d="M19,9V36.17822C17.56934,34.2876,14.74854,33,11.5,33,6.80566,33,3,35.68652,3,39s3.80566,6,8.5,6S20,42.31348,20,39V10L44,4.4V30.17822C42.56934,28.2876,39.74854,27,36.5,27c-4.69434,0-8.5,2.68652-8.5,6s3.80566,6,8.5,6S45,36.31348,45,33V3ZM11.5,44C7.36426,44,4,41.75684,4,39s3.36426-5,7.5-5S19,36.24316,19,39,15.63574,44,11.5,44Zm25-6c-4.13574,0-7.5-2.24316-7.5-5s3.36426-5,7.5-5S44,30.24316,44,33,40.63574,38,36.5,38Z" fill="#949494"/></svg>

<?xml version="1.0" encoding="utf-8"?>
<!-- Generator: Adobe Illustrator 21.1.0, SVG Export Plug-In . SVG Version: 6.00 Build 0)  -->
<svg version="1.1" xmlns="http://www.w3.org/2000/svg" xmlns:xlink="http://www.w3.org/1999/xlink" x="0px" y="0px"
	 viewBox="0 0 48 48" enable-background="new 0 0 48 48" xml:space="preserve">
<g id="TEMPLATE" display="none">
	<g display="inline">
		<path fill="#D0D0D0" d="M48,0v48H0V0H48 M49-1h-1H0h-1v1v48v1h1h48h1v-1V0V-1L49-1z"/>
	</g>
	<g display="inline" opacity="0.1">
		<path fill="#FF3A6D" d="M45,3v42H3V3H45 M48,0H0v48h48V0L48,0z"/>
	</g>
</g>
<g id="ICONS">
	<path fill="#949494" d="M19,9v27.1782C17.5693,34.2876,14.7485,33,11.5,33C6.8057,33,3,35.6865,3,39s3.8057,6,8.5,6
		s8.5-2.6865,8.5-6V10l24-5.6v25.7782C42.5693,28.2876,39.7485,27,36.5,27c-4.6943,0-8.5,2.6865-8.5,6s3.8057,6,8.5,6
		s8.5-2.6865,8.5-6V3L19,9z M11.5,44C7.3643,44,4,41.7568,4,39s3.3643-5,7.5-5s7.5,2.2432,7.5,5S15.6357,44,11.5,44z M36.5,38
		c-4.1357,0-7.5-2.2432-7.5-5s3.3643-5,7.5-5s7.5,2.2432,7.5,5S40.6357,38,36.5,38z"/>
</g>
</svg>
